T: Scotland The Brave
M: 2/4
L: 1/8
K: Dmaj
A|D>C DE |FD FA |d>c d>c |dA FD |G2 BG |
F2 AF | E2 AD |AB A/G/F/E/ |D>C DE |FD FA |
|:d>c d>c |dA FD |d>c d>c |dA FD |
G2 BG |FA FD |E2 DE |D2 FA :|
